img/misc/pump_inv_complex.svg

<svg height="24" width="24" xmlns="http://www.w3.org/2000/svg" xmlns:xlink="http://www.w3.org/1999/xlink">
  <linearGradient id="a" gradientUnits="userSpaceOnUse" x1="5.42373" x2="25.169493" y1="11.847458" y2="11.745763">
    <stop offset="0" stop-color="#00acff" stop-opacity=".559211"/>
    <stop offset="1" stop-color="#00acff" stop-opacity=".138158"/>
  </linearGradient>
  <path d="m1.8389838 8.1538459-1.8389838-.0457712v7.7302353l1.8389838.0078c7.692309 0 22.3409162 7.692309 28.1101472 11.538461v-30.7692302c-5.769231 3.84619795-20.4178382 11.5385051-28.1101472 11.5385051z" fill="url(#a)" stroke="#00acff" stroke-linecap="round" stroke-opacity=".680365" stroke-width=".5"/>
  <g fill="#1b4627">
    <g transform="matrix(.72647854 0 0 .72647854 2.346881 1.030692)">
      <path d="m5.6917037 20.637652-1.3603373-1.038304 10.8750886-14.2480259 1.360338 1.0383036z"/>
      <path d="m4.5513468 13.353273 2.4813793 1.218535h-8.352498l2.8912502-1.218535 1.9607317-11.1440482-2.63646568-.1550861 6.08159348-2.45922303z"/>
    </g>
    <path d="m17.415876 11.884951c-.587303 2.736536-2.47909 4.892058-5.025883 5.734929.922029 1.479881 2.295841 2.459207 3.597364 2.3461l.135553.813317c-3.502657.744513-5.563734-.522574-7.0383216-2.763186-4.501674-.405122-5.9114558-4.084111-5.1822903-7.924629.7821451-4.1195615 4.0452966-6.369148 7.9246289-6.4022659 4.893226-.041774 6.467263 4.1032315 5.588949 8.1957349zm-5.8392-7.1008849c-3.1684736-.0202019-4.1951005 3.6835334-4.6400792 6.3292759-.4380434 2.604507-.038596 5.7934 2.8153288 5.849628 3.1545464.06215 4.4828494-3.585594 4.6922144-6.256286.22357-2.8518915-.05079-5.9046591-2.867464-5.9226179z" transform="matrix(.81631828 0 0 .81631828 6.852222 6.509454)"/>
  </g>
</svg>

<?xml version="1.0" encoding="UTF-8" standalone="no"?>
<svg
   xmlns:dc="http://purl.org/dc/elements/1.1/"
   xmlns:cc="http://creativecommons.org/ns#"
   xmlns:rdf="http://www.w3.org/1999/02/22-rdf-syntax-ns#"
   xmlns:svg="http://www.w3.org/2000/svg"
   xmlns="http://www.w3.org/2000/svg"
   xmlns:xlink="http://www.w3.org/1999/xlink"
   version="1.0"
   width="24"
   height="24"
   id="svg2742">
  <defs
     id="defs2744">
    <linearGradient
       id="linearGradient6861">
      <stop
         id="stop6863"
         style="stop-color:#00acff;stop-opacity:0.55921054"
         offset="0" />
      <stop
         id="stop6865"
         style="stop-color:#00acff;stop-opacity:0.13815789"
         offset="1" />
    </linearGradient>
    <linearGradient
       x1="3.0847456"
       y1="11.847458"
       x2="22.830509"
       y2="11.745763"
       id="linearGradient6867"
       xlink:href="#linearGradient6861"
       gradientUnits="userSpaceOnUse"
       gradientTransform="translate(2.3389842,0)" />
  </defs>
  <metadata
     id="metadata2747">
    <rdf:RDF>
      <cc:Work
         rdf:about="">
        <dc:format>image/svg+xml</dc:format>
        <dc:type
           rdf:resource="http://purl.org/dc/dcmitype/StillImage" />
        <dc:title></dc:title>
      </cc:Work>
    </rdf:RDF>
  </metadata>
  <path
     d="M 1.8389838,8.1538459 0,8.1080747 0,15.83831 l 1.8389838,0.0078 c 7.692309,0 22.3409162,7.692309 28.1101472,11.538461 l 0,-30.7692302 C 24.1799,0.46153875 9.5312928,8.1538459 1.8389838,8.1538459 Z"
     id="path6066"
     style="display:inline;fill:url(#linearGradient6867);fill-opacity:1;stroke:#00acff;stroke-width:0.5;stroke-linecap:round;stroke-linejoin:miter;stroke-miterlimit:4;stroke-dasharray:none;stroke-opacity:0.68036535" />
  <g
     id="layer6"
     style="display:inline" />
  <g
     id="layer5"
     style="display:none">
    <text
       x="5.9327812"
       y="13.279749"
       transform="scale(1.1328754,0.8827096)"
       id="text13317"
       xml:space="preserve"
       style="font-size:17.97815323px;font-style:normal;font-variant:normal;font-weight:normal;font-stretch:normal;text-align:start;line-height:125%;writing-mode:lr-tb;text-anchor:start;fill:#000000;fill-opacity:1;stroke:none;display:inline;font-family:Times New Roman;-inkscape-font-specification:Times New Roman"><tspan
         x="5.9327812"
         y="13.279749"
         id="tspan13323">S</tspan></text>
    <path
       d="m 4,17.000267 c 8.802697,0.26229 13.999999,-3 18.999999,-7.9999992"
       id="path13321"
       style="fill:none;stroke:#ff0005;stroke-width:1.5;stroke-linecap:round;stroke-linejoin:miter;stroke-miterlimit:4;stroke-opacity:1;stroke-dasharray:none;display:inline" />
  </g>
  <g
     id="layer2"
     style="display:none">
    <path
       d="M 4.0111821,15.990455 C 12.813879,16.252745 18,13 23,7"
       id="path12606"
       style="fill:none;stroke:#ff4300;stroke-width:1.5;stroke-linecap:round;stroke-linejoin:miter;stroke-miterlimit:4;stroke-opacity:1;stroke-dasharray:none" />
    <path
       d="M 12.71547,8.1177516 C 12.188347,9.3173972 11.382526,9.9172193 10.298003,9.9172195 9.5406477,9.9172193 8.8453994,9.5673231 8.2122556,8.8675299 7.5791085,8.1677383 7.2625357,7.1604614 7.2625364,5.8456961 7.2625357,4.767232 7.4518735,3.88719 7.8305503,3.2055676 8.2092245,2.5239581 8.7045321,2.0013859 9.3164745,1.6378493 9.9284115,1.2743288 10.743321,1.0925646 11.761206,1.092556 l 0,0.3362642 c -0.896709,8.2e-6 -1.593472,0.3695956 -2.0902908,1.1087631 -0.4968254,0.7391818 -0.7452365,1.7873556 -0.7452342,3.1445248 -2.3e-6,1.3753535 0.1620708,2.3174982 0.4862199,2.826437 0.3241434,0.5089411 0.7073631,0.763411 1.1496601,0.7634106 1.93319,-0.616632 1.687496,-2.4827973 1.32688,-4.5713756 -5e-6,-1.3511093 0.275671,-2.0266665 0.827029,-2.0266735 0.551345,7e-6 0.827021,0.6240643 0.827028,1.8721737 -0.396598,2.2133163 -0.914348,3.9202555 1.272351,4.7258754 0.454402,4e-7 0.84671,-0.2378078 1.176925,-0.7134254 C 16.321969,8.082915 16.487072,7.1846966 16.487082,5.8638725 16.487072,4.7611732 16.379528,3.9174841 16.16445,3.3328027 15.949352,2.748134 15.62975,2.290694 15.205642,1.9604812 14.781517,1.6302838 14.263489,1.4530637 13.651556,1.4288202 l 0,-0.3362642 c 1.017873,8.6e-6 1.832783,0.1848022 2.444732,0.5543815 0.61193,0.3695954 1.105723,0.8906529 1.48138,1.5631742 0.375635,0.6725342 0.563458,1.5419732 0.56347,2.6083197 -1.2e-5,1.3329417 -0.304467,2.3493069 -0.913366,3.0490985 -0.608921,0.6997932 -1.319316,1.0496894 -2.131188,1.0496896 -1.11483,-2e-7 -1.908534,-0.5998223 -2.381114,-1.7994679 l 0,0 z"
       transform="scale(1.103083,0.9065501)"
       id="text3163"
       style="font-size:18.61267853px;font-style:normal;font-variant:normal;font-weight:normal;font-stretch:normal;text-align:start;line-height:125%;writing-mode:lr-tb;text-anchor:start;fill:#000000;fill-opacity:1;stroke:none;display:inline;font-family:Times New Roman;-inkscape-font-specification:Times New Roman" />
    <text
       x="-13.363182"
       y="9.6627493"
       transform="scale(1.103083,0.9065501)"
       id="text13304"
       xml:space="preserve"
       style="font-size:18.61267853px;font-style:normal;font-variant:normal;font-weight:normal;font-stretch:normal;text-align:start;line-height:125%;writing-mode:lr-tb;text-anchor:start;fill:#003366;fill-opacity:1;stroke:none;display:inline;font-family:Times New Roman;-inkscape-font-specification:Times New Roman"><tspan
         x="-13.363182"
         y="9.6627493"
         id="tspan13306">ω</tspan></text>
  </g>
  <g
     id="layer3"
     style="display:none">
    <path
       d="M 5,0 C 5.3889246,8.1174473 5.7825075,18 9,18 14,18 23,8 23,8"
       id="path13302"
       style="fill:none;stroke:#ff4300;stroke-width:1.5;stroke-linecap:round;stroke-linejoin:miter;stroke-miterlimit:4;stroke-opacity:1;stroke-dasharray:none;display:inline" />
    <text
       x="6.2948327"
       y="13.344278"
       transform="scale(1.1120232,0.8992618)"
       id="text13296"
       xml:space="preserve"
       style="font-size:18.46304131px;font-style:normal;font-variant:normal;font-weight:normal;font-stretch:normal;text-align:start;line-height:125%;writing-mode:lr-tb;text-anchor:start;fill:#000000;fill-opacity:1;stroke:none;display:inline;font-family:Times New Roman;-inkscape-font-specification:Times New Roman"><tspan
         x="6.2948327"
         y="13.344278"
         id="tspan13300">R</tspan></text>
  </g>
  <g
     style="font-style:italic;font-variant:normal;font-weight:bold;font-stretch:normal;font-size:26.61182022px;line-height:125%;font-family:'Liberation Serif';-inkscape-font-specification:'Liberation Serif, Bold Italic';text-align:start;letter-spacing:0px;word-spacing:0px;writing-mode:lr-tb;text-anchor:start;fill:#1b4627;fill-opacity:1;stroke:none;stroke-width:1px;stroke-linecap:butt;stroke-linejoin:miter;stroke-opacity:1"
     id="text5045"
     transform="matrix(0.72647854,0,0,0.72647854,2.3468811,1.0306919)">
    <path
       d="M 5.6917037,20.637652 4.3313664,19.599348 15.206455,5.3513221 16.566793,6.3896257 Z"
       style="font-style:italic;font-variant:normal;font-weight:bold;font-stretch:normal;font-size:20px;line-height:125%;font-family:'Liberation Serif';-inkscape-font-specification:'Liberation Serif, Bold Italic';text-align:start;writing-mode:lr-tb;text-anchor:start;fill:#1b4627;fill-opacity:1"
       id="path5058" />
    <path
       d="m 4.5513468,13.353273 2.4813793,1.218535 -8.352498,0 L 1.5714783,13.353273 3.53221,2.2092248 0.89574432,2.0541387 6.9773378,-0.40508433 Z"
       style="font-style:italic;font-variant:normal;font-weight:bold;font-stretch:normal;font-size:20px;line-height:125%;font-family:'Liberation Serif';-inkscape-font-specification:'Liberation Serif, Bold Italic';text-align:start;writing-mode:lr-tb;text-anchor:start;fill:#1b4627;fill-opacity:1"
       id="path5060" />
  </g>
  <g
     style="font-style:italic;font-variant:normal;font-weight:bold;font-stretch:normal;font-size:21.35478973px;line-height:125%;font-family:'Liberation Serif';-inkscape-font-specification:'Liberation Serif, Bold Italic';text-align:start;letter-spacing:0px;word-spacing:0px;writing-mode:lr-tb;text-anchor:start;fill:#1b4627;fill-opacity:1;stroke:none;stroke-width:1px;stroke-linecap:butt;stroke-linejoin:miter;stroke-opacity:1"
     id="text5049"
     transform="matrix(0.81631828,0,0,0.81631828,6.8522222,6.5094536)">
    <path
       d="m 17.415876,11.884951 c -0.587303,2.736536 -2.47909,4.892058 -5.025883,5.734929 0.922029,1.479881 2.295841,2.459207 3.597364,2.3461 l 0.135553,0.813317 C 12.620253,21.52381 10.559176,20.256723 9.0845884,18.016111 4.5829144,17.610989 3.1731326,13.932 3.9022981,10.091482 4.6844432,5.9719205 7.9475947,3.722334 11.826927,3.6892161 c 4.893226,-0.041774 6.467263,4.1032315 5.588949,8.1957349 z m -5.8392,-7.1008849 C 8.4082024,4.7638642 7.3815755,8.4675995 6.9365968,11.113342 6.4985534,13.717849 6.8980008,16.906742 9.7519256,16.96297 12.906472,17.02512 14.234775,13.377376 14.44414,10.706684 14.66771,7.8547925 14.39335,4.8020249 11.576676,4.7840661 Z"
       id="path5101"
       style="fill:#1b4627;fill-opacity:1" />
  </g>
</svg>
